X:51
T:Jeune fille de quinze ans (50-51-52)
T:Une fille de rose
N: rev. 01/06/01
R:hanter dro
C:trad
A:Bretagne
O:France
M:3/4
L:1/8
Q:100
K:Am
%%tablature 90 accordh accordn accordb
 |: "Am" ee/f/ "Am" ed "Am" c2   | "Am" ed/c/ "G" Bd "Am" cA | "Am" ee/f/ "Am" ed "Am" c2   |1 "Am" ed/c/ "G" BG "Em" E2 :|2 "Am" ed/c/ "G" BG "Am" A2 |
w:     * * *  * *  * | * * *  7 8  * * | * * *  * *  * | * * *  7 6  4'| * * *  7 6  *  
w:     9 9 8'  9 7'  8 | 9 7' 8  * *  8 7 | 9 9 8'  9 7'  8 | 9 7' 8  * *  * | 9 7' 8  * *  7  
w: A a *  A a A~~a | A a * G g E e | A a *  A a A~~a | A a * G g E~~e | A a * G g E~~e | 
 |: "Am" AA/B/ "Am" cd "C" e2 | "G" de/f/ "F" af "Am" e2 | "Am" cd/e/ "F" fe "G" d2 |1 "G" Bc/d/ "Em" cB "Em" cB :|2 "G" Bc/d/ "Em" cB "Am" A2 ||
w:     * * *  * *  7' | 8 7' *  * *  * | * * *  * *  8 | 7 6' 8  6' 7  6' 7 | 7 6' 8  6' 7  *  
w:     7 7 6'  8 7' * | * * 8'  9' 8'  9 | 8 7' 9  8' 9  * | * * *  * *  * * | * * *  * *  7  
w: A a * A a C~c | G g * F f A~a | A a * F f G~g | G g * E e E e | G g * E e A~a |  
